X:205
T:Mingulay Boat Song
R:waltz
Z:added by Alf Warnock - alf0@rogers.com - http://members.rogers.com/alf0
M:3/4
L:1/8
K:D
"A7"A4 B2|"D"d6|d6|a4 f2|
"D"f4 e2|d6|a4 f2|"A7"e6|
e4 d2|"F#m"f2 e2 d2|"G"B6|B6|
"A7"A4 B2|"D"d6|d6|a4 f2|
f4 e2|d6|a4 f2|"A7"e6|
e4 d2|f4 e2|"G"d6-|d6|
"A7"A4 B2|"D"d6|d6|"A7"e2 d2 e2|
"D"f6|"A7"A6|A4 B2|"Bm"d6|
d6|"A7"e2 d2 e2|"Bm"f6|"F#7"e6|
f4 e2|"G"d6|d6|"A7"e2 d2 e2|
"D"f6|A6|"A7"A4 B2|"D"d6|
A4 f2|"A7"e4 d2|"D"d6|]
